public/img/events/ovanka.svg

<svg width="200" height="200" viewBox="0 0 200 200" fill="none" xmlns="http://www.w3.org/2000/svg">
<path d="M160.051 0.0487377C152.297 2.81034 143.837 5.93661 138.432 12.4666C135.533 15.97 133.952 20.1685 133.364 24.6475C132.73 29.5006 133.13 34.4035 133.274 39.2753C133.424 44.3247 133.174 49.2588 131.696 54.1212C130.178 59.1208 127.804 63.871 125.154 68.3624C120.053 77.0057 113.404 84.5674 105.844 91.1472C98.4522 97.5774 90.2889 103.069 81.9037 108.116C80.8602 108.742 79.8136 109.363 78.7639 109.98C78.2953 110.254 78.2922 110.821 78.6046 111.205C83.3283 116.965 88.0489 122.728 92.7726 128.488C95.1032 131.331 97.4369 134.176 99.7675 137.019C100.964 138.478 102.157 139.936 103.354 141.395C104.219 142.449 105.235 144.306 106.794 143.225C107.437 142.779 108.012 142.193 108.603 141.685C109.352 141.04 110.099 140.392 110.849 139.746C112.239 138.546 113.629 137.346 115.02 136.143C117.566 133.943 120.128 131.755 122.617 129.492C127.401 125.147 131.962 120.462 135.43 114.979C137.304 112.012 138.841 108.851 140.313 105.672C141.765 102.527 143.209 99.3728 144.58 96.1904C147.289 89.9004 149.732 83.4359 150.966 76.6784C152.191 69.9739 151.981 63.2632 150.619 56.596C149.251 49.8915 146.948 43.4301 144.843 36.9345C143.783 33.6648 142.696 30.3733 142 27.007C141.306 23.6626 141.075 20.1186 142.24 16.849C143.296 13.8941 145.43 11.4505 147.704 9.34653C150.051 7.17715 152.672 5.32258 155.487 3.80775C156.88 3.05657 158.32 2.39578 159.798 1.8285C160.726 1.47006 160.323 -0.0354196 159.382 0.326144C153.618 2.54851 148.126 6.09558 144.102 10.8208C142.053 13.2302 140.531 16.0105 140.063 19.168C139.566 22.4875 140.072 25.8538 140.875 29.086C142.512 35.6877 144.999 42.0649 146.948 48.5762C148.885 55.0438 150.391 61.7078 150.26 68.4934C150.129 75.282 148.404 81.9242 146.086 88.2734C143.737 94.713 140.853 101 137.885 107.178C136.407 110.254 134.792 113.265 132.833 116.064C130.981 118.71 128.863 121.163 126.616 123.482C121.977 128.273 116.816 132.537 111.774 136.888C110.418 138.057 109.065 139.229 107.709 140.398C107.353 140.706 106.997 141.015 106.641 141.32C106.488 141.451 105.997 141.984 105.825 141.959C105.625 141.928 105.219 141.224 105.085 141.062C104.757 140.66 104.429 140.261 104.098 139.859C101.767 137.016 99.4332 134.17 97.1026 131.328C92.4383 125.639 87.7771 119.951 83.1127 114.262C81.9755 112.875 80.8415 111.491 79.7043 110.104C79.6512 110.513 79.5981 110.921 79.545 111.329C87.9364 106.411 96.1341 101.121 103.691 94.9841C111.314 88.7939 118.216 81.706 123.714 73.5553C126.626 69.2414 129.184 64.6564 131.228 59.8688C133.24 55.156 134.564 50.2687 134.814 45.1413C135.273 35.7906 132.674 25.3582 137.407 16.7118C141.5 9.2312 149.847 5.48466 157.486 2.63579C158.476 2.26799 159.467 1.90954 160.463 1.55421C161.407 1.21759 161.004 -0.287891 160.051 0.0487377Z" fill="black"/>
<path d="M91.7225 116.603C92.9471 116.603 94.1218 115.528 94.0656 114.265C94.0094 113 93.0346 111.928 91.7225 111.928C90.4978 111.928 89.3231 113.003 89.3794 114.265C89.4356 115.531 90.4103 116.603 91.7225 116.603Z" fill="black"/>
<path d="M97.94 125.533C99.1647 125.533 100.339 124.458 100.283 123.195C100.227 121.93 99.2522 120.858 97.94 120.858C96.7154 120.858 95.5407 121.933 95.5969 123.195C95.6531 124.464 96.6279 125.533 97.94 125.533Z" fill="black"/>
<path d="M104.156 132.976C105.381 132.976 106.556 131.901 106.499 130.639C106.443 129.373 105.468 128.301 104.156 128.301C102.932 128.301 101.757 129.376 101.813 130.639C101.869 131.907 102.844 132.976 104.156 132.976Z" fill="black"/>
<path d="M94.4535 101.629C97.7807 105.619 101.105 109.606 104.432 113.595C107.672 117.479 110.877 121.397 114.157 125.249C115.751 127.12 117.481 128.927 119.662 130.118C120.543 130.601 121.334 129.255 120.449 128.772C118.541 127.727 117.016 126.175 115.604 124.545C114.014 122.709 112.48 120.82 110.924 118.953C107.665 115.045 104.404 111.136 101.145 107.227C99.2834 104.993 97.4214 102.761 95.5594 100.526C95.2907 100.202 94.7346 100.249 94.4535 100.526C94.1317 100.847 94.1817 101.305 94.4535 101.629Z" fill="black"/>
<path d="M104.885 93.4474C111.03 100.595 117.703 107.287 124.842 113.446C126.86 115.188 128.916 116.887 131.006 118.545C131.337 118.807 131.787 118.866 132.112 118.545C132.383 118.274 132.443 117.706 132.112 117.442C124.723 111.585 117.769 105.183 111.33 98.2973C109.508 96.3493 107.731 94.3638 105.991 92.344C105.716 92.023 105.169 92.0635 104.885 92.344C104.566 92.6619 104.607 93.1264 104.885 93.4474Z" fill="black"/>
<path d="M131.778 58.7592C137.579 61.0159 143.596 62.7021 149.729 63.7931C150.144 63.8679 150.569 63.6808 150.691 63.2476C150.794 62.8704 150.563 62.3624 150.144 62.2876C144.012 61.1998 137.998 59.5104 132.193 57.2537C131.799 57.101 131.337 57.4221 131.231 57.7992C131.109 58.2418 131.381 58.6065 131.778 58.7592Z" fill="black"/>
<path d="M133.055 52.6874C138.135 53.6069 143.271 54.196 148.426 54.4453C149.432 54.4952 149.428 52.9367 148.426 52.8869C143.408 52.6437 138.413 52.0796 133.47 51.185C133.055 51.1102 132.627 51.2972 132.508 51.7305C132.405 52.1076 132.636 52.6126 133.055 52.6874Z" fill="black"/>
<path d="M134.496 45.7741C138.16 45.7024 141.822 45.4375 145.458 44.9824C145.877 44.9294 146.239 44.6614 146.239 44.2032C146.239 43.8229 145.88 43.3709 145.458 43.4239C141.822 43.879 138.16 44.1439 134.496 44.2156C133.493 44.2375 133.49 45.7959 134.496 45.7741Z" fill="black"/>
<path d="M134.248 42.0713C137.819 42.2458 141.399 42.118 144.951 41.6941C145.37 41.6443 145.733 41.3731 145.733 40.9149C145.733 40.5315 145.373 40.0858 144.951 40.1357C141.399 40.5596 137.819 40.6874 134.248 40.5128C133.242 40.4661 133.245 42.0245 134.248 42.0713Z" fill="black"/>
<path d="M93.1192 129.005C85.7712 130.056 79.7854 135.457 76.1426 141.66C71.7688 149.103 70.4411 157.818 68.8571 166.165C68.0761 170.286 67.2107 174.407 65.8861 178.39C65.2206 180.388 64.4365 182.342 63.4805 184.222C62.6057 185.942 61.6216 187.666 60.347 189.128C59.2067 190.434 57.8039 191.6 56.0732 191.986C54.258 192.394 52.4617 191.709 50.859 190.908C49.2188 190.085 47.6192 189.019 45.826 188.557C44.3451 188.174 42.6925 188.127 41.2241 188.598C39.8245 189.047 38.6248 189.994 38.1781 191.428C37.6282 193.189 38.4187 194.928 39.6308 196.2C40.8711 197.5 42.5019 198.46 44.1514 199.152C45.701 199.8 47.5005 200.265 49.1719 199.831C49.978 199.622 50.7121 199.174 51.2526 198.541C51.5275 198.22 51.5682 197.752 51.2526 197.438C50.9714 197.157 50.4216 197.116 50.1467 197.438C49.1626 198.591 47.6536 198.575 46.2634 198.226C44.6607 197.824 43.1174 197.032 41.799 196.044C40.6493 195.184 39.3684 193.862 39.5715 192.304C39.6496 191.718 39.8807 191.285 40.2431 190.914C40.6368 190.515 41.171 190.237 41.7209 190.072C42.9768 189.692 44.3608 189.754 45.6323 190.122C47.3256 190.615 48.8345 191.662 50.4122 192.422C52.1774 193.273 54.0487 193.875 56.0294 193.576C57.8289 193.301 59.4222 192.273 60.7063 191.023C62.0653 189.695 63.1243 188.09 64.0553 186.447C65.0707 184.658 65.9236 182.779 66.6577 180.859C68.1073 177.065 69.0602 173.107 69.8631 169.136C71.5158 160.966 72.5342 152.466 76.1989 144.877C79.173 138.711 84.256 133.001 91.0323 131.047C91.8539 130.81 92.6881 130.636 93.5316 130.514C93.9502 130.455 94.1783 129.925 94.0783 129.554C93.9565 129.102 93.5378 128.946 93.1192 129.005Z" fill="black"/>
<path d="M93.8438 129.342C87.8549 129.467 81.7722 129.607 75.9519 131.172C71.0595 132.487 66.4014 134.924 62.9555 138.69C61.3184 140.479 59.9938 142.536 59.1378 144.805C58.1474 147.426 57.9444 150.25 58.1599 153.024C58.4005 156.104 59.0815 159.127 59.4971 162.182C59.822 164.579 60.025 167.088 59.2877 169.432C58.6348 171.508 57.0446 173.247 54.7484 173.319C52.3834 173.394 50.3996 171.726 50.0528 169.388C49.9778 168.874 49.9966 168.338 50.1059 167.83C50.3152 166.851 48.8125 166.433 48.6001 167.415C48.0533 169.959 49.178 172.751 51.4649 174.067C53.7736 175.395 56.7759 175.052 58.7348 173.266C60.5187 171.639 61.1716 169.139 61.3184 166.814C61.5028 163.934 60.9092 161.022 60.4312 158.195C59.9219 155.181 59.4221 152.117 59.7314 149.05C59.9813 146.576 60.8717 144.222 62.2244 142.143C64.8487 138.113 69.0757 135.189 73.5557 133.556C79.301 131.462 85.468 131.106 91.5257 130.95C92.2974 130.932 93.0659 130.913 93.8376 130.897C94.8498 130.879 94.8529 129.32 93.8438 129.342Z" fill="black"/>
<path d="M93.6695 130.09C91.1015 131.053 89.1239 133.064 87.868 135.467C86.4215 138.238 85.9904 141.386 85.8748 144.472C85.7498 147.882 85.8435 151.307 85.8935 154.717C85.9435 158.236 86.0247 161.755 86.1372 165.271C86.2497 168.787 86.3965 172.306 86.5715 175.819C86.6558 177.524 86.7558 179.232 86.8495 180.937C86.9182 182.162 86.937 183.399 86.7995 184.621C86.6808 185.69 86.4028 186.784 85.8342 187.703C85.2 188.729 84.194 189.349 83.0162 189.608C81.5166 189.938 79.9108 189.814 78.3862 189.814C76.6305 189.814 74.8716 189.798 73.1158 189.814C71.9692 189.826 70.6852 190.085 69.798 190.858C69.3731 191.229 69.0982 191.746 69.0669 192.31C69.0263 193.046 69.4106 193.691 69.9136 194.196C70.8602 195.153 72.0192 195.998 73.2314 196.584C74.3811 197.138 75.7026 197.525 76.9772 197.195C77.6083 197.032 78.1675 196.683 78.6205 196.225C79.3297 195.511 78.2238 194.408 77.5146 195.122C75.8619 196.786 73.0627 194.876 71.6662 193.685C71.4288 193.482 71.1882 193.273 70.9726 193.049C70.8789 192.952 70.7883 192.853 70.7227 192.734C70.6977 192.687 70.6758 192.644 70.6571 192.597C70.6165 192.497 70.6352 192.513 70.6259 192.472C70.5977 192.332 70.6102 192.298 70.7071 192.158C70.7508 192.092 70.7414 192.108 70.8414 192.011C70.9008 191.955 70.9351 191.93 71.0601 191.855C72.0255 191.275 73.2283 191.369 74.3561 191.369C76.0369 191.369 77.7145 191.369 79.3953 191.369C80.8637 191.369 82.382 191.419 83.8097 191.014C86.3059 190.303 87.743 188.18 88.2023 185.724C88.7021 183.072 88.3741 180.344 88.2304 177.676C88.0523 174.316 87.8992 170.956 87.7774 167.596C87.5337 160.879 87.4025 154.159 87.3962 147.439C87.3931 144.341 87.4368 141.186 88.396 138.21C89.1301 135.938 90.511 133.728 92.5354 132.39C93.0197 132.069 93.5383 131.795 94.0819 131.589C94.4755 131.443 94.7473 131.063 94.6286 130.629C94.5286 130.258 94.0663 129.944 93.6695 130.09Z" fill="black"/>
</svg>

<svg xmlns="http://www.w3.org/2000/svg" width="200" height="200" fill="none"><path fill="#000" d="M160.051.049c-7.754 2.761-16.214 5.888-21.619 12.418-2.899 3.503-4.48 7.702-5.068 12.18-.634 4.854-.234 9.757-.09 14.628.15 5.05-.1 9.984-1.578 14.846-1.518 5-3.892 9.75-6.542 14.241-5.101 8.644-11.75 16.205-19.31 22.785-7.392 6.43-15.555 11.922-23.94 16.969q-1.565.939-3.14 1.864c-.469.274-.472.841-.16 1.225q7.085 8.641 14.169 17.283l6.995 8.531q1.792 2.188 3.586 4.376c.865 1.054 1.881 2.911 3.44 1.83.643-.446 1.218-1.032 1.809-1.54q1.122-.969 2.246-1.939 2.085-1.8 4.171-3.603c2.546-2.2 5.108-4.388 7.597-6.651 4.784-4.345 9.345-9.03 12.813-14.513 1.874-2.967 3.411-6.128 4.883-9.307 1.452-3.145 2.896-6.3 4.267-9.482 2.709-6.29 5.152-12.754 6.386-19.512 1.225-6.704 1.015-13.415-.347-20.082-1.368-6.704-3.671-13.166-5.776-19.661-1.06-3.27-2.147-6.562-2.843-9.928-.694-3.344-.925-6.888.24-10.158 1.056-2.955 3.19-5.398 5.464-7.502a38 38 0 0 1 7.783-5.54 37 37 0 0 1 4.311-1.978c.928-.359.525-1.864-.416-1.503-5.764 2.223-11.256 5.77-15.28 10.495-2.049 2.41-3.571 5.19-4.039 8.347-.497 3.32.009 6.686.812 9.918 1.637 6.602 4.124 12.979 6.073 19.49 1.937 6.468 3.443 13.132 3.312 19.917-.131 6.789-1.856 13.431-4.174 19.78-2.349 6.44-5.233 12.727-8.201 18.905-1.478 3.076-3.093 6.087-5.052 8.886-1.852 2.646-3.97 5.099-6.217 7.418-4.639 4.791-9.8 9.055-14.842 13.406q-2.032 1.755-4.065 3.51-.534.463-1.068.922c-.153.131-.644.664-.816.639-.2-.031-.606-.735-.74-.897q-.491-.601-.987-1.203l-6.995-8.531q-6.996-8.533-13.99-17.066l-3.409-4.158-.159 1.225c8.391-4.918 16.59-10.208 24.146-16.345 7.623-6.19 14.525-13.278 20.023-21.429 2.912-4.314 5.47-8.899 7.514-13.686 2.012-4.713 3.336-9.6 3.586-14.728.459-9.35-2.14-19.783 2.593-28.43 4.093-7.48 12.44-11.226 20.079-14.075q1.484-.55 2.977-1.082c.944-.336.541-1.842-.412-1.505"/><path fill="#000" d="M91.723 116.603c1.224 0 2.399-1.075 2.343-2.338-.057-1.265-1.031-2.337-2.344-2.337-1.224 0-2.399 1.075-2.343 2.337.057 1.266 1.031 2.338 2.343 2.338M97.94 125.533c1.225 0 2.399-1.075 2.343-2.338-.056-1.265-1.03-2.337-2.343-2.337-1.225 0-2.4 1.075-2.343 2.337.056 1.269 1.03 2.338 2.343 2.338M104.156 132.976c1.225 0 2.4-1.075 2.343-2.337-.056-1.266-1.031-2.338-2.343-2.338-1.224 0-2.399 1.075-2.343 2.338.056 1.268 1.031 2.337 2.343 2.337M94.454 101.629l9.978 11.966c3.24 3.884 6.445 7.802 9.725 11.654 1.594 1.871 3.324 3.678 5.505 4.869.881.483 1.672-.863.787-1.346-1.908-1.045-3.433-2.597-4.845-4.227-1.59-1.836-3.124-3.725-4.68-5.592l-9.779-11.726-5.586-6.701c-.268-.324-.824-.277-1.105 0-.322.321-.272.779 0 1.103M104.885 93.447a190 190 0 0 0 26.121 25.098c.331.262.781.321 1.106 0 .271-.271.331-.839 0-1.103a190.3 190.3 0 0 1-26.121-25.098c-.275-.321-.822-.28-1.106 0-.319.318-.278.782 0 1.103M131.778 58.76a96 96 0 0 0 17.951 5.033c.415.075.84-.112.962-.545.103-.378-.128-.886-.547-.96a95.7 95.7 0 0 1-17.951-5.034c-.394-.153-.856.168-.962.545-.122.443.15.807.547.96M133.055 52.687c5.08.92 10.216 1.509 15.371 1.758 1.006.05 1.002-1.508 0-1.558a115 115 0 0 1-14.956-1.702c-.415-.075-.843.112-.962.545-.103.378.128.883.547.957M134.496 45.774c3.664-.072 7.326-.337 10.962-.792.419-.053.781-.32.781-.779 0-.38-.359-.832-.781-.78-3.636.456-7.298.72-10.962.793-1.003.021-1.006 1.58 0 1.558M134.248 42.071c3.571.175 7.151.047 10.703-.377.419-.05.782-.32.782-.78 0-.383-.36-.828-.782-.778a64 64 0 0 1-10.703.377c-1.006-.047-1.003 1.512 0 1.558M93.12 129.005c-7.349 1.051-13.335 6.452-16.977 12.655-4.374 7.443-5.702 16.158-7.286 24.505-.78 4.121-1.646 8.242-2.97 12.225-.666 1.998-1.45 3.952-2.407 5.832-.874 1.72-1.858 3.444-3.133 4.906-1.14 1.306-2.543 2.472-4.274 2.858-1.815.408-3.611-.277-5.214-1.078-1.64-.823-3.24-1.889-5.033-2.351-1.48-.383-3.133-.43-4.602.041-1.4.449-2.6 1.396-3.046 2.83-.55 1.761.24 3.5 1.453 4.772 1.24 1.3 2.87 2.26 4.52 2.952 1.55.648 3.35 1.113 5.02.679a4.1 4.1 0 0 0 2.082-1.29c.275-.321.315-.789 0-1.103-.282-.281-.831-.322-1.106 0-.984 1.153-2.493 1.137-3.884.788-1.602-.402-3.146-1.194-4.464-2.182-1.15-.86-2.43-2.182-2.227-3.74.078-.586.309-1.019.671-1.39.394-.399.928-.677 1.478-.842 1.256-.38 2.64-.318 3.911.05 1.694.493 3.203 1.54 4.78 2.3 1.765.851 3.637 1.453 5.617 1.154 1.8-.275 3.393-1.303 4.677-2.553 1.36-1.328 2.418-2.933 3.35-4.576 1.015-1.789 1.868-3.668 2.602-5.588 1.45-3.794 2.402-7.752 3.205-11.723 1.653-8.17 2.671-16.67 6.336-24.259 2.974-6.166 8.057-11.876 14.833-13.83a19 19 0 0 1 2.5-.533c.418-.059.646-.589.546-.96-.121-.452-.54-.608-.959-.549"/><path fill="#000" d="M93.844 129.342c-5.99.125-12.072.265-17.892 1.83-4.892 1.315-9.55 3.752-12.996 7.518-1.638 1.789-2.962 3.846-3.818 6.115-.99 2.621-1.194 5.445-.978 8.219.24 3.08.922 6.103 1.337 9.158.325 2.397.528 4.906-.21 7.25-.652 2.076-2.242 3.815-4.539 3.887-2.365.075-4.348-1.593-4.695-3.931a4.4 4.4 0 0 1 .053-1.558c.21-.979-1.294-1.397-1.506-.415-.547 2.544.578 5.336 2.865 6.652 2.309 1.328 5.31.985 7.27-.801 1.784-1.627 2.437-4.127 2.583-6.452.185-2.88-.409-5.792-.887-8.619-.51-3.014-1.009-6.078-.7-9.145.25-2.474 1.14-4.828 2.493-6.907 2.625-4.03 6.852-6.954 11.332-8.587 5.745-2.094 11.912-2.45 17.97-2.606q1.155-.028 2.312-.053c1.012-.018 1.015-1.577.006-1.555"/><path fill="#000" d="M93.67 130.09c-2.568.963-4.546 2.974-5.802 5.377-1.447 2.771-1.878 5.919-1.993 9.005-.125 3.41-.031 6.835.019 10.245q.074 5.28.243 10.554c.113 3.516.26 7.035.434 10.548.085 1.705.185 3.413.279 5.118.068 1.225.087 2.462-.05 3.684-.12 1.069-.397 2.163-.966 3.082-.634 1.026-1.64 1.646-2.818 1.905-1.5.33-3.105.206-4.63.206-1.755 0-3.514-.016-5.27 0-1.147.012-2.43.271-3.318 1.044-.425.371-.7.888-.731 1.452-.04.736.344 1.381.847 1.886a12.3 12.3 0 0 0 3.317 2.388c1.15.554 2.472.941 3.746.611a3.6 3.6 0 0 0 1.644-.97c.709-.714-.397-1.817-1.106-1.103-1.653 1.664-4.452-.246-5.849-1.437a10 10 0 0 1-.693-.636 1.5 1.5 0 0 1-.25-.315 1 1 0 0 1-.066-.137c-.04-.1-.022-.084-.031-.125-.028-.14-.016-.174.081-.314.044-.066.034-.05.134-.147.06-.056.094-.081.22-.156.964-.58 2.167-.486 3.295-.486h5.04c1.468 0 2.986.05 4.414-.355 2.496-.711 3.933-2.834 4.392-5.29.5-2.652.172-5.38.028-8.048q-.268-5.04-.453-10.08a571 571 0 0 1-.38-20.157c-.004-3.098.04-6.253.999-9.229.734-2.272 2.115-4.482 4.14-5.82a8 8 0 0 1 1.546-.801c.394-.146.665-.526.547-.96-.1-.371-.563-.685-.96-.539"/></svg>
